docs/img/icon1/comma_services6.svg

<svg width="131" height="178" viewBox="0 0 131 178" fill="none" xmlns="http://www.w3.org/2000/svg">
<path id="&#226;&#128;&#156;&#226;&#128;&#157;" d="M119.778 5.39856L119.739 5.35449L119.695 5.31529C116.675 2.61607 112.096 1.36535 106.166 1.36535L70.7938 1.36535C50.0823 1.36535 33.434 7.12125 20.959 18.7249L20.9583 18.7256C8.13342 30.6783 1.80551 48.5404 1.80551 72.1182L1.8055 158.963C1.8055 164.907 3.19455 169.398 6.22978 172.142C8.95928 175.195 13.4284 176.593 19.3432 176.593L112.138 176.593C118.094 176.593 122.691 175.176 125.71 172.14L125.001 171.435L125.71 172.14C128.439 169.396 129.676 164.908 129.676 158.963L129.676 90.5958C129.676 84.6355 128.433 80.0342 125.75 76.9992L125.711 76.9552L125.667 76.916C122.647 74.2167 118.068 72.966 112.138 72.966L63.0656 72.966L63.0656 67.0369C63.0656 63.2323 64.0763 60.258 66.0137 58.0179C67.9163 56.1191 70.6836 55.1026 74.4689 55.1026L106.166 55.1026C112.122 55.1026 116.719 53.6858 119.738 50.6503C122.467 47.9059 123.704 43.4182 123.704 37.4727L123.704 18.9952C123.704 13.0348 122.461 8.43358 119.778 5.39856Z" stroke="#232323" stroke-width="2"/>
</svg>

<svg width="131" height="178" fill="none" xmlns="http://www.w3.org/2000/svg"><path d="M119.778 5.399l-.039-.045-.044-.039c-3.02-2.699-7.599-3.95-13.529-3.95H70.794c-20.712 0-37.36 5.756-49.835 17.36h0C8.132 30.679 1.805 48.54 1.805 72.119v86.845c0 5.944 1.389 10.435 4.424 13.179 2.73 3.053 7.198 4.451 13.113 4.451h92.795c5.956 0 10.553-1.417 13.572-4.453l-.709-.705.709.705c2.729-2.744 3.966-7.232 3.966-13.177V90.596c0-5.96-1.243-10.562-3.926-13.597l-.039-.044-.044-.039c-3.02-2.7-7.599-3.95-13.529-3.95H63.066v-5.93c0-3.804 1.01-6.778 2.948-9.018 1.902-1.899 4.67-2.915 8.455-2.915h31.697c5.956 0 10.553-1.417 13.572-4.453 2.729-2.744 3.966-7.232 3.966-13.177V18.995c0-5.96-1.243-10.561-3.926-13.596z" stroke="#232323" stroke-width="2"/></svg>
